X:801
T:Well Done Jack
S:Colin Hume's website,  colinhume.com  - chords can also be printed below the stave.
Q:1/2=120
M:2/2
L:1/4
C:Walsh, 1719
K:A
P:A
|:a | "E7"gf/e/ "A"ae | "E7"gf/e/ "D"f2 | "A"ed/c/ "Bm"BA | "E7"GB- Ba |\
"E7"gf/e/ "A"ae | "E7"gf/e/ "D"f2 | "A"ed/c/ "E7"BA | "A"EA- A :|
P:B
|: e/d/ | "A"cA ce | "F#m"ac "D"d2 | "A"cd/c/ "D"BA | "E7"GB- Be/d/ |\
"A"ce ac | "D"da "A"ca | "F#m"cd/c/ "E7"BA | "A"EA- A :|

